Origami/32x32/apps/electrum-ltc.svg

<svg width="32" height="32" version="1.1" viewBox="0 0 32 32" xmlns="http://www.w3.org/2000/svg">
 <circle cx="16" cy="17" r="14" style="opacity:.2"/>
 <circle cx="16" cy="16" r="14" style="fill:#3399cc"/>
 <path d="m20.072266 4.03125c-1.305052-0.0604905-2.701186 0.3099627-4.072266 1-2.278542-1.1465552-4.631409-1.3872039-6.5097656-0.3027344-1.8781846 1.0843704-2.8439461 3.2409628-2.9902344 5.7871094-2.1311058 1.399889-3.515625 3.316097-3.515625 5.484375s1.3845192 4.084486 3.515625 5.484375c0.1463894 2.545972 1.1140028 4.702739 2.9921875 5.787109 1.8783565 1.08447 4.2293715 0.843647 6.5078125-0.302734 2.278266 1.146481 4.627503 1.387204 6.505859 0.302734 1.878185-1.08437 2.847577-3.241037 2.994141-5.787109 2.131105-1.399889 3.515625-3.316097 3.515625-5.484375s-1.38452-4.084486-3.515625-5.484375c-0.146463-2.5462482-1.114003-4.7046921-2.992188-5.7890625-0.747995-0.4318553-1.571953-0.655284-2.435546-0.6953125zm-0.070313 1.0273438c0.721927 0.0315373 1.393032 0.2157515 1.990235 0.5605468 1.344131 0.7760345 2.16468 2.2885861 2.416015 4.2558594-1.190128-0.618822-2.558677-1.1021209-4.050781-1.4257812-1.026606-1.1304272-2.128546-2.0737789-3.259766-2.7949219 1.016987-0.4259796 2.001033-0.6351622 2.904297-0.5957031zm-8.005859 0.0019531c0.902759-0.0394371 1.885962 0.1702131 2.902344 0.5957031-1.130217 0.7208546-2.23182 1.6638013-3.257813 2.7929688-1.492373 0.3238766-2.8605945 0.8085823-4.0507812 1.4277343 0.2511113-1.9679901 1.0715504-3.4796322 2.4160152-4.2558593 0.597203-0.3447952 1.268308-0.5290095 1.990235-0.5605469zm4.003906 1.1308593c0.87977 0.4975686 1.76104 1.158654 2.611328 1.953125-0.843936-0.1044719-1.71698-0.1601562-2.611328-0.1601562-0.895826 0-1.770001 0.0572996-2.615234 0.1621094 0.851576-0.7960351 1.734063-1.4568852 2.615234-1.9550782zm0 2.8242188c1.336124 0 2.617242 0.1353293 3.816406 0.3730469 0.805438 0.9194521 1.562281 1.9618051 2.230469 3.1191401 0.668217 1.157387 1.19415 2.334563 1.587891 3.492188-0.393545 1.157204-0.91778 2.332951-1.585938 3.490234-0.668691 1.158208-1.428069 2.200822-2.234375 3.121094-1.198623 0.237479-2.479033 0.373047-3.814453 0.373047-1.336827 0-2.618654-0.13509-3.818359-0.373047-0.805623-0.919773-1.564234-1.961805-2.2324222-3.11914-0.6677649-1.156603-1.1905111-2.333687-1.5839844-3.490235 0.3938537-1.158671 0.9170944-2.337624 1.5859375-3.496094 0.6681881-1.157335 1.4250311-2.197735 2.2304691-3.1171871 1.199705-0.2379565 2.481532-0.3730469 3.818359-0.3730469zm-5.498047 0.7929688c-0.5125477 0.6784832-0.9962305 1.4071912-1.4433592 2.1816402-0.4481667 0.776248-0.8360663 1.562558-1.1679688 2.347657-0.2633468-1.13484-0.3958036-2.23051-0.3867188-3.242188 0.8709897-0.513412 1.8840938-0.947801 2.9980468-1.2871092zm10.994141 0c1.114039 0.3391962 2.126922 0.7737932 2.998047 1.2871092 0.009078 1.010997-0.121781 2.104261-0.384766 3.238281-0.331602-0.783323-0.720764-1.567215-1.167969-2.341796-0.447604-0.775274-0.93232-1.504403-1.445312-2.1835942zm-7.445313 1.1914062l-1.089843 4.787109-1.710938 0.263672-0.25 1 1.732422-0.267578-0.732422 3.216797h7.25l0.699219-2h-4.494141l0.386719-1.697266 1.958984-0.302734 0.25-1-1.980469 0.306641 0.980469-4.306641h-3zm-7.5585935 0.777344c0.0587631 1.341547 0.3230321 2.768692 0.7890625 4.224609-0.4652975 1.454652-0.7302856 2.880497-0.7890625 4.220703-1.57894-1.201598-2.4765625-2.669886-2.4765625-4.222656s0.8976225-3.021058 2.4765625-4.222656zm19.015624 0c1.57894 1.201598 2.476563 2.669886 2.476563 4.222656s-0.897623 3.021058-2.476563 4.222656c-0.058931-1.340593-0.323069-2.767709-0.789062-4.222656 0.46612-1.455166 0.730185-2.881655 0.789062-4.222656zm-17.617187 5.888672c0.3312819 0.783021 0.7189439 1.567446 1.1660156 2.341796 0.4476045 0.775274 0.9320648 1.504335 1.4453124 2.183594-1.113953-0.339308-2.1270571-0.773697-2.9980468-1.287109-0.0090658-1.010566 0.1237824-2.104471 0.3867188-3.238281zm16.21875 0c0.263092 1.134161 0.393834 2.227423 0.384766 3.238281-0.871125 0.513316-1.884008 0.947913-2.998047 1.287109 0.513094-0.679361 0.997701-1.410261 1.445312-2.185547 0.447197-0.774568 0.836465-1.556696 1.167969-2.339843zm-16.519531 4.457031c1.1901867 0.619152 2.5584082 1.103858 4.0507812 1.427734 1.026104 1.129359 2.127668 2.072074 3.257813 2.792969-1.828954 0.765373-3.54663 0.809159-4.890626 0.033203-1.3444644-0.776227-2.1666401-2.286292-2.4179682-4.253906zm16.818359 0.001953c-0.251624 1.966661-1.073948 3.477935-2.417969 4.253906-1.344413 0.776198-3.062988 0.732862-4.892578-0.033203 1.130751-0.72093 2.233354-1.662878 3.259766-2.792969 1.492264-0.32366 2.860544-0.808855 4.050781-1.427734zm-11.023437 1.728516c0.845233 0.104809 1.719408 0.162109 2.615234 0.162109 0.895034 0 1.768742-0.055527 2.613281-0.160156-0.850476 0.794797-1.733502 1.455541-2.613281 1.953125-0.88118-0.498209-1.763469-1.158716-2.615234-1.955078z" style="fill:#ffffff"/>
 <path d="M 16 2 A 14 14 0 0 0 2 16 A 14 14 0 0 0 2.0214844 16.585938 A 14 14 0 0 1 16 3 A 14 14 0 0 1 29.978516 16.414062 A 14 14 0 0 0 30 16 A 14 14 0 0 0 16 2 z" style="fill:#ffffff;opacity:.2"/>
</svg>

<svg xmlns="http://www.w3.org/2000/svg" width="32" height="32" version="1.1" viewBox="0 0 32 32">
 <circle style="opacity:0.2" cx="16" cy="17" r="14"/>
 <circle style="fill:#3399cc" cx="16" cy="16" r="14"/>
 <path style="fill:#ffffff" d="M 20.072266 4.03125 C 18.767214 3.9707595 17.37108 4.3412127 16 5.03125 C 13.721458 3.8846948 11.368591 3.6440461 9.4902344 4.7285156 C 7.6120498 5.812886 6.6462883 7.9694784 6.5 10.515625 C 4.3688942 11.915514 2.984375 13.831722 2.984375 16 C 2.984375 18.168278 4.3688942 20.084486 6.5 21.484375 C 6.6463894 24.030347 7.6140028 26.187114 9.4921875 27.271484 C 11.370544 28.355954 13.721559 28.115131 16 26.96875 C 18.278266 28.115231 20.627503 28.355954 22.505859 27.271484 C 24.384044 26.187114 25.353436 24.030447 25.5 21.484375 C 27.631105 20.084486 29.015625 18.168278 29.015625 16 C 29.015625 13.831722 27.631105 11.915514 25.5 10.515625 C 25.353537 7.9693768 24.385997 5.8109329 22.507812 4.7265625 C 21.759817 4.2947072 20.935859 4.0712785 20.072266 4.03125 z M 20.001953 5.0585938 C 20.72388 5.0901311 21.394985 5.2743453 21.992188 5.6191406 C 23.336319 6.3951751 24.156868 7.9077267 24.408203 9.875 C 23.218075 9.256178 21.849526 8.7728791 20.357422 8.4492188 C 19.330816 7.3187916 18.228876 6.3754399 17.097656 5.6542969 C 18.114643 5.2283173 19.098689 5.0191347 20.001953 5.0585938 z M 11.996094 5.0605469 C 12.898853 5.0211098 13.882056 5.23076 14.898438 5.65625 C 13.768221 6.3771046 12.666618 7.3200513 11.640625 8.4492188 C 10.148252 8.7730954 8.7800305 9.2578011 7.5898438 9.8769531 C 7.8409551 7.908963 8.6613942 6.3973209 10.005859 5.6210938 C 10.603062 5.2762986 11.274167 5.0920843 11.996094 5.0605469 z M 16 6.1914062 C 16.87977 6.6889748 17.76104 7.3500602 18.611328 8.1445312 C 17.767392 8.0400593 16.894348 7.984375 16 7.984375 C 15.104174 7.984375 14.229999 8.0416746 13.384766 8.1464844 C 14.236342 7.3504493 15.118829 6.6895992 16 6.1914062 z M 16 9.015625 C 17.336124 9.015625 18.617242 9.1509543 19.816406 9.3886719 C 20.621844 10.308124 21.378687 11.350477 22.046875 12.507812 C 22.715092 13.665199 23.241025 14.842375 23.634766 16 C 23.241221 17.157204 22.716986 18.332951 22.048828 19.490234 C 21.380137 20.648442 20.620759 21.691056 19.814453 22.611328 C 18.61583 22.848807 17.33542 22.984375 16 22.984375 C 14.663173 22.984375 13.381346 22.849285 12.181641 22.611328 C 11.376018 21.691555 10.617407 20.649523 9.9492188 19.492188 C 9.2814539 18.335585 8.7587077 17.158501 8.3652344 16.001953 C 8.7590881 14.843282 9.2823288 13.664329 9.9511719 12.505859 C 10.61936 11.348524 11.376203 10.308124 12.181641 9.3886719 C 13.381346 9.1507154 14.663173 9.015625 16 9.015625 z M 10.501953 9.8085938 C 9.9894053 10.487077 9.5057225 11.215785 9.0585938 11.990234 C 8.6104271 12.766482 8.2225275 13.552792 7.890625 14.337891 C 7.6272782 13.203051 7.4948214 12.107381 7.5039062 11.095703 C 8.3748959 10.582291 9.388 10.147902 10.501953 9.8085938 z M 21.496094 9.8085938 C 22.610133 10.14779 23.623016 10.582387 24.494141 11.095703 C 24.503219 12.1067 24.37236 13.199964 24.109375 14.333984 C 23.777773 13.550661 23.388611 12.766769 22.941406 11.992188 C 22.493802 11.216914 22.009086 10.487785 21.496094 9.8085938 z M 14.050781 11 L 12.960938 15.787109 L 11.25 16.050781 L 11 17.050781 L 12.732422 16.783203 L 12 20 L 19.25 20 L 19.949219 18 L 15.455078 18 L 15.841797 16.302734 L 17.800781 16 L 18.050781 15 L 16.070312 15.306641 L 17.050781 11 L 14.050781 11 z M 6.4921875 11.777344 C 6.5509506 13.118891 6.8152196 14.546036 7.28125 16.001953 C 6.8159525 17.456605 6.5509644 18.88245 6.4921875 20.222656 C 4.9132475 19.021058 4.015625 17.55277 4.015625 16 C 4.015625 14.44723 4.9132475 12.978942 6.4921875 11.777344 z M 25.507812 11.777344 C 27.086752 12.978942 27.984375 14.44723 27.984375 16 C 27.984375 17.55277 27.086752 19.021058 25.507812 20.222656 C 25.448881 18.882063 25.184743 17.454947 24.71875 16 C 25.18487 14.544834 25.448935 13.118345 25.507812 11.777344 z M 7.890625 17.666016 C 8.2219069 18.449037 8.6095689 19.233462 9.0566406 20.007812 C 9.5042451 20.783086 9.9887054 21.512147 10.501953 22.191406 C 9.388 21.852098 8.3748959 21.417709 7.5039062 20.904297 C 7.4948404 19.893731 7.6276886 18.799826 7.890625 17.666016 z M 24.109375 17.666016 C 24.372467 18.800177 24.503209 19.893439 24.494141 20.904297 C 23.623016 21.417613 22.610133 21.85221 21.496094 22.191406 C 22.009188 21.512045 22.493795 20.781145 22.941406 20.005859 C 23.388603 19.231291 23.777871 18.449163 24.109375 17.666016 z M 7.5898438 22.123047 C 8.7800305 22.742199 10.148252 23.226905 11.640625 23.550781 C 12.666729 24.68014 13.768293 25.622855 14.898438 26.34375 C 13.069484 27.109123 11.351808 27.152909 10.007812 26.376953 C 8.6633476 25.600726 7.8411719 24.090661 7.5898438 22.123047 z M 24.408203 22.125 C 24.156579 24.091661 23.334255 25.602935 21.990234 26.378906 C 20.645821 27.155104 18.927246 27.111768 17.097656 26.345703 C 18.228407 25.624773 19.33101 24.682825 20.357422 23.552734 C 21.849686 23.229074 23.217966 22.743879 24.408203 22.125 z M 13.384766 23.853516 C 14.229999 23.958325 15.104174 24.015625 16 24.015625 C 16.895034 24.015625 17.768742 23.960098 18.613281 23.855469 C 17.762805 24.650266 16.879779 25.31101 16 25.808594 C 15.11882 25.310385 14.236531 24.649878 13.384766 23.853516 z"/>
 <path style="fill:#ffffff;opacity:0.2" d="M 16 2 A 14 14 0 0 0 2 16 A 14 14 0 0 0 2.0214844 16.585938 A 14 14 0 0 1 16 3 A 14 14 0 0 1 29.978516 16.414062 A 14 14 0 0 0 30 16 A 14 14 0 0 0 16 2 z"/>
</svg>
